X:105
T:Rolling in the Ryegrass
T:Shannon Breezes, The
R:reel
Z:id:hn-reel-105
M:C|
K:D
A2AF DFAF | G2BG dGBG | ~A3F DFAF |1 GBAF EFDF :|2 GBAF EFD2 ||
|: ABde ~f3d | ~g3e fedB | ABde fefg | afdf efdB :|
P:variations
ABAF DFAF | G2BG DGBG | ABAF DFAF | GBAF EFDF |
~A3F DFAF | GFEF GBdB | ~A3F DFAF | GBAF EFD2 ||
ABde f2df | g2eg fedB | ABde f2df | afdf (3efe dB |
ABde fAdf | ~g3e fedB | ABde fefg | afdf efdB ||
P:more variations
|: ~A3F DFAF | ~G3B DGBG | FAAF DFAF |1 GBAF (3EFE D2 :|2 GBAF EFD2 ||
|: ABde ~f3a | gefd edBd | ABde fAdf | afdf efdB :|

